src/assets/avatar-default.svg

<svg width="119" height="119" viewBox="0 0 119 119" fill="none" xmlns="http://www.w3.org/2000/svg">
<rect x="1.5" y="1.5" width="116" height="116" rx="58" fill="#272727"/>
<rect x="1.5" y="1.5" width="116" height="116" rx="58" stroke="#F2C247" stroke-width="3"/>
<g opacity="0.9">
<path fill-rule="evenodd" clip-rule="evenodd" d="M39.6475 62.607C42.076 63.5857 44.9291 64.2266 48.2031 64.168C50.0626 69.3196 54.5701 70.1559 56.2571 70.1176C56.4983 70.1121 56.7064 70.1142 56.8854 70.116H56.8854C57.2325 70.1195 57.4704 70.1219 57.629 70.0658C57.8681 69.9812 58.0434 69.787 58.2144 69.5973C58.4278 69.3607 58.6347 69.1313 58.9513 69.1313H59.7162H60.481C60.7976 69.1313 61.0045 69.3607 61.2179 69.5973C61.389 69.787 61.5642 69.9812 61.8033 70.0658C61.9619 70.1219 62.1998 70.1195 62.5469 70.116H62.5469H62.547C62.726 70.1142 62.934 70.1121 63.1752 70.1176C64.8618 70.1559 69.3675 69.32 71.2279 64.1717C74.5197 64.1692 77.3761 63.4597 79.7931 62.4238C79.2865 74.1032 75.3304 86.4656 59.7162 86.4656C44.1835 86.4656 40.1875 74.232 39.6475 62.607Z" fill="#F2C247"/>
<path d="M50.6636 62.2772C58.7059 61.2789 60.1835 56.2849 59.256 53.7595C58.3284 51.2342 55.8252 50.8343 52.3424 51.7707C48.3938 52.8324 44.747 55.5606 41.0856 56.2849C37.5135 56.9916 35.6259 57.4733 31.1194 54.7103C34.0659 58.008 40.6107 63.5251 50.6636 62.2772Z" fill="#F2C247"/>
<path d="M68.3365 62.2772C60.2942 61.2789 58.8167 56.2849 59.7442 53.7595C60.6717 51.2342 63.175 50.8343 66.6578 51.7707C70.6064 52.8324 74.2532 55.5606 77.9145 56.2849C81.4867 56.9916 83.3743 57.4733 87.8808 54.7103C84.9342 58.008 78.3894 63.5251 68.3365 62.2772Z" fill="#F2C247"/>
<path d="M59.1548 39.4266C60.916 39.2844 61.3009 40.4802 61.727 41.804C61.7924 42.0069 61.8587 42.2129 61.931 42.4175C63.7362 47.5222 66.8339 51.2453 74.3173 50.6404C76.4026 50.4685 79.3316 49.5915 80.5144 48.5043C81.9069 47.2223 82.3338 44.9183 82.7299 42.7801C82.7391 42.7308 82.7482 42.6815 82.7573 42.6324C82.8048 42.3738 82.8415 42.1045 82.8783 41.8338C82.9511 41.2978 83.0247 40.7562 83.1855 40.2814M59.1548 39.4266L83.1855 40.2814M59.1548 39.4266C57.8031 39.5364 57.5239 40.4702 57.0947 41.906M59.1548 39.4266L57.0947 41.906M83.1855 40.2814L82.333 39.9927C82.333 39.993 82.3329 39.9932 82.3328 39.9935M83.1855 40.2814L82.3328 39.9935M82.3328 39.9935C82.1848 40.4309 82.1041 40.8921 82.0434 41.3051C82.0206 41.4597 82.0012 41.6033 81.9826 41.7404C81.9478 41.9968 81.9162 42.23 81.8724 42.4682M82.3328 39.9935C82.483 39.5485 82.7376 39.1684 82.9358 38.879C82.9602 38.8433 82.9839 38.8088 83.007 38.7752C83.1908 38.5078 83.333 38.3008 83.443 38.0727M81.8724 42.4682C81.8646 42.5104 81.8568 42.5526 81.8489 42.5947C81.652 43.6571 81.4607 44.6894 81.1618 45.6179C80.851 46.5832 80.453 47.3375 79.9048 47.8422M81.8724 42.4682C81.8723 42.4686 81.8722 42.4691 81.8721 42.4696L82.7571 42.6323L81.8724 42.4682ZM79.9048 47.8422C79.4576 48.2529 78.5793 48.6954 77.4721 49.061C76.3913 49.4178 75.2083 49.6638 74.2448 49.7433M79.9048 47.8422L80.5141 48.504L79.9053 47.8417C79.9051 47.8418 79.905 47.842 79.9048 47.8422ZM74.2448 49.7433C70.6687 50.0324 68.2619 49.2824 66.5446 47.9575C64.8059 46.616 63.6559 44.5957 62.7795 42.1174L62.7795 42.1174C62.7163 41.9385 62.6572 41.7562 62.5954 41.5645L62.583 41.526C62.5262 41.3495 62.4664 41.1635 62.4032 40.982C62.2694 40.5973 62.1018 40.1747 61.8564 39.7949C61.6035 39.4036 61.2566 39.0396 60.7631 38.7992C60.2727 38.5603 59.7103 38.4788 59.0824 38.5295L59.082 38.5295C58.5506 38.5727 58.0777 38.7203 57.6737 39.0054C57.2734 39.2879 57.0068 39.659 56.812 40.0402C56.6221 40.4116 56.4821 40.8298 56.3568 41.2362C56.3124 41.3803 56.2699 41.5225 56.2271 41.6657C56.142 41.9505 56.0556 42.2398 55.9496 42.5585L55.9492 42.5597C55.2773 44.5897 54.3382 46.309 52.9852 47.5657C51.6467 48.8088 49.8452 49.6537 47.3379 49.8465L47.3378 49.8465C45.8365 49.9621 44.1625 49.8662 42.6827 49.563C41.1723 49.2534 39.9984 48.7552 39.3715 48.1668C38.789 47.618 38.3369 46.7277 37.9646 45.5637C37.6181 44.4804 37.3721 43.2681 37.1243 42.0471C37.1081 41.9675 37.092 41.8879 37.0758 41.8083L37.0757 41.8077C36.8558 40.7304 36.5811 40.2247 36.0948 39.4727L36.0948 39.4727L36.0923 39.469C35.9159 39.1991 35.7594 38.9167 35.6242 38.624M74.2448 49.7433C74.2443 49.7434 74.2438 49.7434 74.2433 49.7435L74.3172 50.6393L74.2448 49.7433ZM35.6242 38.624C35.5604 38.4833 35.4972 38.3469 35.4356 38.2139C34.9539 37.174 34.5706 36.3465 34.7694 35.3108M35.6242 38.624C35.6238 38.6231 35.6233 38.6221 35.6229 38.6212L34.8058 38.9984L35.6255 38.627C35.6251 38.626 35.6246 38.625 35.6242 38.624ZM34.7694 35.3108C41.363 34.3055 47.262 34.3566 53.2176 35.5017L53.218 35.5018C53.8096 35.6153 54.3768 35.7457 54.9619 35.8802C55.3616 35.9721 55.7696 36.0659 56.1993 36.1575C57.217 36.3745 58.2792 36.5598 59.3479 36.5857C60.6062 36.6162 61.9596 36.39 63.2318 36.1155C63.844 35.9834 64.4516 35.8368 65.0294 35.6974L65.1084 35.6783C65.7145 35.5321 66.284 35.3955 66.8139 35.286M34.7694 35.3108C34.5803 35.3396 34.3906 35.3693 34.2003 35.3999L34.0576 34.5113M34.7694 35.3108C34.8003 35.1496 34.8454 34.9835 34.9063 34.8107L34.0576 34.5113M66.8139 35.286C72.3099 34.1545 78.2603 33.6573 84.2015 34.8588M66.8139 35.286C66.8137 35.2861 66.8135 35.2861 66.8133 35.2862L66.6318 34.4046L66.8139 35.286ZM84.2015 34.8588C84.4601 35.8991 84.0761 36.7536 83.443 38.0727M84.2015 34.8588C84.3682 34.8925 84.5348 34.9276 84.7015 34.964L84.8936 34.0847L84.0581 34.4194C84.1186 34.5705 84.1661 34.7164 84.2015 34.8588ZM83.443 38.0727L84.2536 38.4636L83.4423 38.0742C83.4425 38.0737 83.4427 38.0732 83.443 38.0727ZM34.0576 34.5113C33.4769 36.1576 34.0637 37.4102 34.6169 38.5909C34.6809 38.7275 34.7445 38.8632 34.8057 38.9984C34.9597 39.332 35.138 39.6539 35.339 39.9614M34.0576 34.5113C40.9726 33.4003 47.1458 33.4178 53.3875 34.6179L35.339 39.9614M35.339 39.9614C35.7847 40.6506 36.0028 41.0518 36.1938 41.9877C36.2108 42.0712 36.2278 42.155 36.2449 42.239C36.752 44.7393 37.3028 47.4551 38.7551 48.8226L35.339 39.9614ZM57.0947 41.906C57.0074 42.1982 56.9138 42.5113 56.8036 42.8425L57.0947 41.906Z" stroke="#EFEFEF" stroke-width="1.8"/>
</g>
</svg>

<svg xmlns="http://www.w3.org/2000/svg" width="119" height="119" fill="none" viewBox="0 0 119 119">
    <rect width="116" height="116" x="1.5" y="1.5" fill="#272727" rx="58"/>
    <rect width="116" height="116" x="1.5" y="1.5" stroke="#F2C247" stroke-width="3" rx="58"/>
    <g opacity=".9">
        <path fill="#F2C247" fill-rule="evenodd" d="M39.648 62.607a21.662 21.662 0 0 0 8.555 1.561c1.86 5.152 6.367 5.988 8.054 5.95.241-.006.45-.004.628-.002.348.004.585.006.744-.05.24-.085.414-.279.585-.469.214-.236.42-.466.737-.466h1.53c.317 0 .523.23.737.466.171.19.346.384.585.469.159.056.397.053.744.05.179-.002.387-.004.628.002 1.687.038 6.193-.798 8.053-5.946a21.609 21.609 0 0 0 8.565-1.748c-.507 11.68-4.463 24.042-20.077 24.042-15.532 0-19.529-12.234-20.069-23.859Z" clip-rule="evenodd"/>
        <path fill="#F2C247" d="M50.664 62.277c8.042-.998 9.52-5.992 8.592-8.517-.928-2.526-3.43-2.926-6.914-1.99-3.948 1.062-7.595 3.79-11.256 4.515-3.572.707-5.46 1.188-9.967-1.575 2.947 3.298 9.492 8.815 19.545 7.567Z"/>
        <path fill="#F2C247" d="M68.337 62.277c-8.043-.998-9.52-5.992-8.593-8.517.928-2.526 3.431-2.926 6.914-1.99 3.948 1.062 7.595 3.79 11.257 4.515 3.572.707 5.46 1.188 9.966-1.575-2.947 3.298-9.492 8.815-19.544 7.567Z"/>
        <path stroke="#EFEFEF" stroke-width="1.8" d="M59.155 39.427c1.761-.143 2.146 1.053 2.572 2.377.065.203.132.409.204.613 1.805 5.105 4.903 8.828 12.386 8.223 2.086-.172 5.015-1.048 6.197-2.136 1.393-1.282 1.82-3.586 2.216-5.724l.027-.148c.048-.258.084-.527.121-.798.073-.536.147-1.078.308-1.553m-24.031-.854 24.03.854m-24.03-.854c-1.352.11-1.631 1.043-2.06 2.479m2.06-2.48-2.06 2.48m26.09-1.625-.852-.288m.853.288-.853-.288m0 0a7.528 7.528 0 0 0-.29 1.312l-.06.435c-.035.257-.067.49-.11.728m.46-2.475c.15-.445.405-.825.603-1.114l.071-.104c.184-.267.326-.474.436-.702m-1.57 4.395-.024.127c-.197 1.062-.388 2.094-.687 3.023-.311.965-.709 1.72-1.257 2.224m1.967-5.374v.002l.885.162-.885-.164Zm-1.967 5.374c-.447.41-1.326.853-2.433 1.219-1.08.357-2.264.603-3.227.682m5.66-1.9.61.661-.61-.662Zm-5.66 1.9c-3.576.29-5.983-.46-7.7-1.785-1.74-1.342-2.89-3.362-3.766-5.84a21.068 21.068 0 0 1-.184-.553l-.012-.039c-.057-.177-.117-.363-.18-.544-.134-.385-.301-.807-.547-1.187a2.712 2.712 0 0 0-1.093-.996c-.49-.239-1.053-.32-1.68-.27h-.001c-.531.044-1.004.191-1.408.476-.4.283-.667.654-.862 1.035-.19.372-.33.79-.455 1.196-.045.144-.087.287-.13.43-.085.285-.171.574-.277.893-.673 2.03-1.612 3.75-2.965 5.007-1.338 1.243-3.14 2.088-5.647 2.28-1.502.116-3.175.02-4.655-.283-1.51-.31-2.685-.808-3.312-1.396-.582-.549-1.034-1.44-1.406-2.603-.347-1.084-.593-2.296-.84-3.517l-.05-.239c-.22-1.078-.494-1.583-.98-2.335l-.003-.004a6.614 6.614 0 0 1-.468-.845m38.62 11.12.073.895-.072-.896Zm-38.62-11.12-.188-.41c-.482-1.04-.865-1.867-.667-2.903m.855 3.313-.001-.003-.817.377.82-.371-.002-.003Zm-.855-3.313c6.594-1.005 12.493-.954 18.449.19.592.114 1.159.245 1.744.38.4.091.808.185 1.237.276 1.018.218 2.08.403 3.149.429 1.258.03 2.612-.196 3.884-.47.612-.133 1.22-.28 1.797-.419l.08-.019a54.573 54.573 0 0 1 1.705-.392m-32.045.025c-.189.029-.378.058-.569.089l-.142-.889m.711.8c.031-.161.076-.328.137-.5l-.848-.3m32.756.775c5.496-1.132 11.446-1.629 17.388-.427m-17.388.427-.182-.881.182.881Zm17.388-.427c.258 1.04-.126 1.895-.759 3.214m.758-3.214c.167.033.334.069.5.105l.193-.88-.836.335c.06.152.108.297.143.44Zm-.758 3.214.81.39-.81-.389v-.001ZM34.058 34.51c-.581 1.647.006 2.9.559 4.08.064.136.128.272.189.407.154.334.332.656.533.963m-1.281-5.45c6.915-1.11 13.088-1.093 19.33.107L35.339 39.96m0 0c.446.69.664 1.09.855 2.027l.05.251c.508 2.5 1.059 5.216 2.511 6.584L35.34 39.96Zm21.756 1.945c-.088.292-.181.605-.291.937l.29-.937Z"/>
    </g>
</svg>
